assets/images/close.svg

<svg xmlns="http://www.w3.org/2000/svg" preserveAspectRatio="xMidYMid" width="140" height="140" viewBox="0 0 140 140"><defs><style>.cls-1{fill:#fff;fill-rule:evenodd}</style></defs><path d="M69.841 139.026c-37.634 0-68.143-30.509-68.143-68.143 0-37.635 30.509-68.143 68.143-68.143 37.635 0 68.143 30.508 68.143 68.143 0 37.634-30.508 68.143-68.143 68.143zm.107-133.057C34.078 5.969 5 35.047 5 70.917c0 35.869 29.078 64.948 64.948 64.948 35.87 0 64.948-29.079 64.948-64.948 0-35.87-29.078-64.948-64.948-64.948zm2.817 64.715l25.11 25.11a1.13 1.13 0 0 1 0 1.597l-.002.002a1.13 1.13 0 0 1-1.597 0l-25.11-25.11-25.145 25.145c-.441.441-1.249.347-1.69-.094l-.002-.002a1.128 1.128 0 0 1 0-1.596l25.145-25.145-25.099-25.099a1.13 1.13 0 0 1 0-1.596l.003-.002a1.128 1.128 0 0 1 1.596 0l25.098 25.098 25.157-25.157a1.13 1.13 0 0 1 1.597 0l.002.002c.441.441.535 1.25.094 1.69L72.765 70.684z" class="cls-1"/></svg>

<svg xmlns="http://www.w3.org/2000/svg" xmlns:xlink="http://www.w3.org/1999/xlink" preserveAspectRatio="xMidYMid" width="140" height="140" viewBox="0 0 140 140">
  <defs>
    <style>
      .cls-1 {
        fill: #fff;
        fill-rule: evenodd;
      }
    </style>
  </defs>
  <path d="M69.841,139.026 C32.207,139.026 1.698,108.517 1.698,70.883 C1.698,33.248 32.207,2.740 69.841,2.740 C107.476,2.740 137.984,33.248 137.984,70.883 C137.984,108.517 107.476,139.026 69.841,139.026 ZM69.948,5.969 C34.078,5.969 5.000,35.047 5.000,70.917 C5.000,106.786 34.078,135.865 69.948,135.865 C105.818,135.865 134.896,106.786 134.896,70.917 C134.896,35.047 105.818,5.969 69.948,5.969 ZM72.765,70.684 L97.875,95.794 C98.316,96.235 98.316,96.950 97.875,97.391 L97.873,97.393 C97.432,97.834 96.717,97.834 96.276,97.393 L71.166,72.283 L46.021,97.428 C45.580,97.869 44.772,97.775 44.331,97.334 L44.329,97.332 C43.888,96.891 43.888,96.176 44.329,95.736 L69.474,70.591 L44.375,45.492 C43.935,45.051 43.935,44.337 44.375,43.896 L44.378,43.894 C44.819,43.453 45.533,43.453 45.974,43.894 L71.072,68.992 L96.229,43.835 C96.670,43.394 97.385,43.394 97.826,43.835 L97.828,43.837 C98.269,44.278 98.363,45.087 97.922,45.527 L72.765,70.684 Z" class="cls-1"/>
</svg>
